src/Pure-Dark/16/symbolic/status/camera-hardware-disabled-symbolic.svg

<svg width="16" height="16" version="1.1" xmlns="http://www.w3.org/2000/svg">
 <g fill="#f2f2f2" opacity=".35" stroke-linecap="round" stroke-linejoin="round">
  <path d="m10.5 6a3.5 3.5 0 0 0-3.5 3.5 3.5 3.5 0 0 0 3.5 3.5 3.5 3.5 0 0 0 3.5-3.5 3.5 3.5 0 0 0-3.5-3.5zm0 1a2.5 2.5 0 0 1 2.5 2.5 2.5 2.5 0 0 1-2.5 2.5 2.5 2.5 0 0 1-2.5-2.5 2.5 2.5 0 0 1 2.5-2.5z" stroke-width="1.4"/>
  <path d="m2 4c-1.108 0-2 0.892-2 2v7c0 1.108 0.892 2 2 2h12c1.108 0 2-0.892 2-2v-7c0-1.108-0.892-2-2-2zm0 1h12c0.554 0 1 0.446 1 1v7c0 0.554-0.446 1-1 1h-12c-0.554 0-1-0.446-1-1v-7c0-0.554 0.446-1 1-1z"/>
  <rect x="7" y="2" width="6" height="1" rx="0" ry="0"/>
  <rect x="2" y="6" width="2" height="1" rx="0" ry="0"/>
 </g>
 <rect y="8" width="16" height="2" rx="1" ry="1" fill="#f2f2f2" stroke-linecap="round" stroke-linejoin="round" stroke-width=".61104" style="paint-order:markers stroke fill"/>
</svg>

<?xml version="1.0" encoding="UTF-8" standalone="no"?>
<svg
   width="16"
   height="16"
   version="1.1"
   id="svg4"
   sodipodi:docname="camera-hardware-disabled-symbolic.svg"
   inkscape:version="1.4.2 (ebf0e940d0, 2025-05-08)"
   xmlns:inkscape="http://www.inkscape.org/namespaces/inkscape"
   xmlns:sodipodi="http://sodipodi.sourceforge.net/DTD/sodipodi-0.dtd"
   xmlns="http://www.w3.org/2000/svg"
   xmlns:svg="http://www.w3.org/2000/svg">
  <defs
     id="defs4">
     <style
        id="current-color-scheme"
        type="text/css">
        .ColorScheme-Text { color:#f2f2f2; }
        .ColorScheme-NeutralText { color:#f67400; }
        .ColorScheme-PositiveText { color:#37c837; }
        .ColorScheme-NegativeText { color:#f44336; }
        .ColorScheme-Highlight { color:#3daee9; }
     </style>
  </defs>
  <sodipodi:namedview
     id="namedview4"
     pagecolor="#ffffff"
     bordercolor="#000000"
     borderopacity="0.25"
     inkscape:showpageshadow="2"
     inkscape:pageopacity="0.0"
     inkscape:pagecheckerboard="0"
     inkscape:deskcolor="#d1d1d1"
     inkscape:zoom="50.5"
     inkscape:cx="7.990099"
     inkscape:cy="8"
     inkscape:window-width="1920"
     inkscape:window-height="1011"
     inkscape:window-x="0"
     inkscape:window-y="0"
     inkscape:window-maximized="1"
     inkscape:current-layer="svg4" />
  <path
     id="path1"
     style="opacity:0.35;fill:currentColor;stroke-linecap:round;stroke-linejoin:round"
     class="ColorScheme-Text"
     d="M 7 2 L 7 3 L 13 3 L 13 2 L 7 2 z M 2 4 C 0.892 4 0 4.892 0 6 L 0 13 C 0 14.108 0.892 15 2 15 L 14 15 C 15.108 15 16 14.108 16 13 L 16 6 C 16 4.892 15.108 4 14 4 L 2 4 z M 2 5 L 14 5 C 14.554 5 15 5.446 15 6 L 15 13 C 15 13.554 14.554 14 14 14 L 2 14 C 1.446 14 1 13.554 1 13 L 1 6 C 1 5.446 1.446 5 2 5 z M 2 6 L 2 7 L 4 7 L 4 6 L 2 6 z M 10.5 6 A 3.5 3.5 0 0 0 7 9.5 A 3.5 3.5 0 0 0 10.5 13 A 3.5 3.5 0 0 0 14 9.5 A 3.5 3.5 0 0 0 10.5 6 z M 10.5 7 A 2.5 2.5 0 0 1 13 9.5 A 2.5 2.5 0 0 1 10.5 12 A 2.5 2.5 0 0 1 8 9.5 A 2.5 2.5 0 0 1 10.5 7 z " />
  <rect
     y="8"
     width="16"
     height="2"
     ry="1"
     stroke-linecap="round"
     stroke-linejoin="round"
     stroke-width=".61104"
     style="fill:currentColor"
     class="ColorScheme-Text"
     id="rect4" />
</svg>
